!!!!SEGMENT: pl-wtm--r-1393_stefani-jozef--mazur.krn
!!!cenid: 18xx:1866
!!!COM: Stefani, Józef
!!!COM-rismid: pe30024097
!!!CDT: 1800/04/16-1876/03/19
!!!CNT: Polish
!!!OTL: Mazur
!!!PDT:
!!!AGN: Secular; Mazurka
!!!SMS-siglum: PL-Wtm
!!!SMS-shelfmark: R 1393
!!!SMS-shelfwork: W
!!!SMS-variant:
!!!SMS-altvar:
!!!NIFC-rismid: 1001117323
!!!URL-scan: http://repozytorium.nifc.pl/skany/pl-wtm-nut--r1393
!!!ONB-nifc: UWAGA: Introdukcja + Mazur razem
!!!AIN: 2 piano
!!!key:
**kern	**kern	**dynam
*part2	*part1	*part1
*staff2	*staff1	*
*Ipiano	*Ipiano	*
*I"[Piano]	*I"[Piano]	*
*I'[pf]	*I'[pf]	*
*clefF4	*clefG2	*
*k[f#c#g#]	*k[f#c#g#]	*
*A:	*A:	*
*M3/4	*M3/4	*
*[A,B,B,C,D,D,E,F,F,G,G,H,B,B,C,D,D,I]	*>[A,B,B,C,D,D,E,F,F,G,G,H,B,B,C,D,D,I]	*
=1	=1	=1
*>A	*>A	*
!	!LO:TX:i:a:t=Introdukcja do Mazura	!
!	!LO:TX:i:a:t=Allegro moderato	!
!	!LO:TX:t=P:problem=all\right&colon; global	!LO:DY:b:rj
8E|> 8EE/	8eeL 8b 8g# 8e/	f
(>16E\LL	(<16e/L	.
16D#X\JJ	16d#X/JJ	.
16E\LL	16e/LL	.
16D#\	16d#/	.
16E\	16e/	.
16D#\JJ	16d#/JJ	.
8E\)	8e/)	.
8E 8EE/	8gg# 8ee 8b\	.
=2	=2	=2
8A 8AA/	8aa 8ee 8cc# 8a\	.
(>16A\LL	(<16a/LL	.
16G#\JJ	16g#/JJ	.
16A\LL	16a/LL	.
16G#\	16g#/	.
16A\	16a/	.
16G#\JJ	16g#/JJ	.
8A\)	8a/)	.
8r	8r	.
=3	=3	=3
!	!	!LO:DY:b:rj
4B 4G# 4C#\	8.ee#X|>L 8.cc#\	p
.	16ddd|>Jk 16bb\	.
4r	4ccc#|> 4aa\	.
4B 4E#X 4C#\	4bb|> 4gg#\	.
!!LO:LB:g=original
=4	=4	=4
8.AL 8.F#\	8.aaL 8.ff#\	.
16BJk 16G# 16C#\	16gg#Jk 16ee#X\	.
4A 4F#\	4aa 4ff#\	.
4r	4r	.
=5	=5	=5
!	!	!LO:DY:b:rj
8B 8BB\	8bb 8ff# 8dd#X 8b\	f
(>16B\LL	(<16b/LL	.
16A#X\JJ	16a#X/JJ	.
16B\LL	16b/LL	.
16A#\	16a#/	.
16B\	16b/	.
16A#\JJ	16a#/JJ)	.
8B\)	8b\	.
8B|> 8F# 8BB\	8bb|> 8ff# 8dd# 8b\	.
=6	=6	=6
8B|> 8G# 8E\	8gg#|> 8ee 8b\	.
(>16E\LL	(<16e/LL	.
16D#X\JJ	16d#X/JJ	.
16E\LL	16e/LL	.
16D#\	16d#/	.
16E\	16e/	.
16D#\JJ	16d#/JJ	.
8E\)	8e/)	.
8r	8r	p
=7	=7	=7
4A 4F# 4BB\	8.dd#XL 8.b\	.
.	16ccc#Jk 16aa\	.
4r	4bb 4gg#\	.
4B 4D#X 4BB\	4aa 4ff#\	.
!!LO:LB:g=original
=8	=8	=8
8B 8G# 8E\	8.gg#L 8.ee\	.
8r	.	.
.	16ff#Jk 16b\	.
4B 4G# 4E\	4ee 4g#\	.
4r	8.b|</L	.
.	16a|</Jk	.
=9	=9	=9
*2\right	*2\right	*
[>2.d [>2.B [>2.G# [<2.E\	4g#|</	.
.	8.dd|>\L	.
.	16cc#|>\Jk	.
.	4b|>\	.
=10	=10	=10
2.d_> 2.B_> 2.G#_> 2.E\_<	8.ff#|>\L	.
.	16ee|>\Jk	.
.	8dd'</L	.
.	8cc#'</	.
.	8b'</	.
.	8a'</J	.
=11	=11	=11
2.d] 2.B] 2.G#] 2.E\]	8g#'</L	.
.	8f#'</	.
.	8e'</J	.
.	8dd'</L	.
.	8cc#'</	.
!	!LO:TX:i:b:t=attacca\nmazur	!
.	8b'</J	.
!!LO:PB:g=original
=12||	=12||	=12||
*>B	*>B	*
*clefF4	*clefG2	*
*k[f#c#g#]	*k[f#c#g#]	*
*M3/8	*M3/8	*
!LO:TX:a:t=P:problem=w źródle zamiast klucza basowego jest wpisany klucz wiolinowy	!LO:TX:a:t=P:kolejność:problem= klucze, znaki przykluczowe, metrum	!
!	!LO:TX:i:a:t=Mazur.	!LO:DY:b:rj
!	!LO:TX:a:t=[segno]	!
!	!LO:TX:a:t=P:problem=znak segno nie wyświetla się	!
8A 8E 8AA\	16.aLL 16.e 16.c#/	f
.	32cc#JJk 32a 32e/	.
8AL 8E 8AA\	8eeL 8cc# 8a\	.
8AJ 8F# 8AA\	8dd#X^<J 8b#X 8a\	.
=13	=13	=13
.	(<8qff# 8qddn/	.
8A 8AA\	16.eeLL 16.cc#\)	.
.	32dd#X|>JJk 32b#X\	.
8AL 8E 8AA\	8ee|>L 8cc#\	.
8AJ 8F# 8AA\	8dd#|>^<J 8b#\	.
=14	=14	=14
*tremolo	*	*
.	(<8qff# 8qddn/	.
8AL 8E 8AA\	16.eeLL 16.cc#\)	.
.	32dd#X|>JJk 32b#X\	.
8A 8E 8AA\	16ee'>LL 16cc#\	.
.	16cc#'>\	.
8AJ 8E 8AA\	16a'>\	.
.	16cc#'>\JJ	.
!!LO:LB:g=original
=15	=15	=15
8BL 8G# 8E\	16.b/LL	.
.	32g#/JJk	.
8B 8G# 8E\	8.e/L	.
8BJ 8G# 8E\	.	.
.	32f#/LL	.
.	32g#/JJJ	.
*Xtremolo	*	*
=16	=16	=16
8A 8AA\	16.aLL 16.e 16.c#/	.
.	32cc#JJk 32a 32e/	.
8AL 8E 8AA\	8eeL 8cc# 8a\	.
8AJ 8F# 8AA\	8dd#XJ 8b#X 8a\	.
=17	=17	=17
*tremolo	*	*
.	(<8qff# 8qddn/	.
8AL 8E 8AA\	16.eeLL 16.cc#\)	.
.	32dd#X|>JJk 32b#X\	.
8A 8E 8AA\	8ee|>L 8cc#\	.
8AJ 8E 8AA\	8cc#|>J 8a\	.
*Xtremolo	*	*
=18	=18	=18
8BL 8G# 8E 8BB\	16b|>LL 16g#\	.
.	(>32ee\L	.
.	32gg#\JJJ)	.
8B 8G# 8E 8BB\	(>16ccc#\LL	.
.	16bb\JJ)	.
8AJ 8F# 8D#X 8BB\	(>16aa\LL	.
.	16ff#\JJ)	.
=19	=19	=19
16G# 16E\	16ee\	.
16r	16r	.
8E 8EE/	8eee 8gg# 8ee\	.
8r	8r	.
!!LO:LB:g=original
=20	=20	=20
*^	*	*
!	!	!	!LO:DY:b:rj
4.E#X/	8E#\L	16.ddd\LL	p
.	.	32ccc#\K	.
.	8d 8B 8G#\	16.bb\	.
.	.	32ddd\K	.
.	8dJ 8B 8G#\	16.ccc#\	.
.	.	32bb\JJk	.
=21	=21	=21	=21
4.F#/	8F#\L	16.ccc#\LL	.
.	.	32aa\JJk	.
.	8c# 8A\	4ff#\	.
.	8c#J 8A\	.	.
*v	*v	*	*
=22	=22	=22
!	!LO:TUP:a:problem=klamra łukowa	!
8C#\	24ee#X\L	.
.	24ff#\	.
.	24gg#\J	.
8c#L 8B 8G#\	8cc#\L	.
8c#J 8B 8G#\	16.dd#X\	.
.	32ee#\Jk	.
=23	=23	=23
*^	*	*
4.F#/	8F#\L	16.ff#\LL	.
.	.	32gg#\K	.
.	8c# 8A\	16.aa\	.
.	.	32ddd\JK	.
.	8c#J 8A\	8ccc#\J	.
=24	=24	=24	=24
4.G#/	8G#\L	16.ff#\LL	.
.	.	32ee\JJk	.
.	8e 8d 8B\	16.dd#X\LL	.
.	.	32ee\K	.
.	8eJ 8d 8B\	16.ddn\	.
.	.	32b\JJk	.
!!LO:LB:g=original
=25	=25	=25	=25
4A/	8A\L	16.cc#\LL	.
.	.	32b\JJk	.
.	8eJ 8c#\	8a\L	.
8A 8AA/	8rAAAyy	8cc#\J	.
=26	=26	=26	=26
4.D/	8D\L	16.b/LL	.
.	.	32a#X/K	.
.	8B 8F#\	16.b/	.
.	.	32an/K	.
.	8BJ 8F#\	16.g#/	.
.	.	32f#/JJk	.
*v	*v	*	*
=27	=27	=27
8c# 8G# 8C#\	16.e#X/LL	.
.	32g#/JJk	.
4G# 4E#X 4C#\	8cc#/L	.
!	!	!LO:HP:b:t=cresc&colon;
.	16.g#/L	<
.	32cc#/JJk	.
=28	=28	=28
*^	*	*
8c# 8G# 8C#\	8rDDDyy	8ee#X\L	.
4G#/	4E#X 4C#\	16.cc#\L	.
.	.	32ee#\JK	.
.	.	8gg#\J	.
=29	=29	=29	=29
8c# 8G# 8C#\	8rDDDyy	16.ee#X\LL	.
.	.	32gg#\JJk	.
!	!LO:TX:a:t=P:problem=ligatura do dźwięku E# kończy się skierowana w dół	!	!
[4G#/	[>4E#X [<4C#\	[>4ccc#\	.
*v	*v	*	*
!!LO:LB:g=original
=30	=30	=30
!LO:N:vis=8.	!	!
16.c# 16.G#] 16.E#X] 16.C#\]	16.ccc#\LL]	.
32c#|> 32C#\	32cc#|>\JJk	.
8c#|>L 8C#\	8cc#|>\L	.
8c#J|> 8C#\	8cc#|>\J	.
=31	=31	=31
8qC#/	.	.
16.c#\LL	16.cc#\LL	.
32B\JJk	32dd\JJk	.
8c#\L	8cc#\L	.
8c#\J	8cc#\J	.
=32	=32	=32
!	!	!LO:DY:b:rj
8A 8E 8AA\	16.a|<LL 16.e 16.c#/	f
.	32cc#|<JJk 32a 32e/	.
8AL 8E 8AA\	8ee'>L 8cc# 8a\	.
8AJ 8F# 8AA\	8dd#X^<'>J 8b#X 8a\	.
=33	=33	=33
.	(<8qff# 8qddn/	.
8A 8AA\	16.eeLL 16.cc#\)	.
.	32dd#X|>JJk 32b#X\	.
8AL 8E 8AA\	8eeL 8cc#\	.
8AJ 8F# 8AA\	8dd#^<J 8b#\	.
!!LO:LB:g=original
=34	=34	=34
.	(<8qff# 8qddn/	.
8A\ 8E\ 8AA\	16.eeLL 16.cc#\)	.
.	32dd#X|>JJk 32b#X\	.
8A\L 8E\ 8AA\	16ee|>LL 16cc#\	.
.	16cc#|>\	.
8A\J 8E\ 8AA\	16a|>\	.
.	16cc#|>\JJ	.
=35	=35	=35
8B 8G# 8E\	16.b|</LL)	.
.	32g#|</JJk	.
4B 4G# 4E\	(<8.e/L	.
.	32f#/LL	.
.	32g#/JJJ)	.
=36	=36	=36
8A 8E 8AA\	16.aLL 16.e 16.c#/	.
.	32cc#JJk 32a 32e/	.
8AL 8E 8AA\	8eeL 8cc# 8a\	.
8AJ 8F# 8AA\	8dd#X^<J 8b#X 8a\	.
=37	=37	=37
.	8qff# 8qddn/	.
8A 8E 8AA\	16.eeLL 16.cc#\	.
.	32dd#XJJk 32b#X\	.
8AL 8E 8AA\	8eeL 8cc#\	.
!	!LO:TX:a:t=P:problem=brak rozpoczecia łuków/ligatur	!
8AJ 8F# 8D#X 8AA\	(<(>8aa^<J 8b# 8a\	.
!!LO:PB:g=original
=38	=38	=38
8A 8E 8AA\	16.aaLL 16.cc# 16.a\))	.
.	32cc#|>\JJk	.
8c#L 8A\	(16ff#\LL	.
.	16ee\)	.
8dJ 8G# 8E\	16ddn'>\	.
.	16b'>\JJ	.
=39	=39	=39
16c# 16A\	16a/	.
16r	16r	.
4A 4AA/	8aa 8cc# 8a\	.
.	8ryy	.
=40:|!	=40:|!	=40:|!
*>C	*>C	*
(<16qqA/LL	(<16qqa/LL	.
16qqB/	16qqb/	.
16qqc#/JJ)	16qqcc#/JJ)	.
16.d\LL	16.dd/LL	.
32F#\JJk	32f#/JJk	.
8F#\L	8f#/L	.
8Gn\J	8gn/J	.
=41	=41	=41
16.A\LL	16.a/LL	.
32B\JJk	32b/JJk	.
4A\	4a/	.
!!LO:LB:g=original
=42	=42	=42
16.ALL 16.AA\	16.a\LL	.
32AJJk 32E 32AA\	32aaJJk 32cc# 32a\	.
8AL 8E 8AA\	8aaL 8cc# 8a\	.
8AJ 8E 8C#\	8gg#J 8ee 8a\	.
=43	=43	=43
.	(<8qgg# 8qee/	.
16.ALL 16.F# 16.D\	16.ff#LL 16.dd\)	.
32AJJk 32E 32AA\	32eeJJk 32cc#\	.
4A 4F# 4D\	4dd\	.
=44	=44	=44
(<16qqc#/LL	(<16qqcc#/LL	.
16qqd#X/	16qqdd#X/	.
16qqe#X/JJ)	16qqee#X/JJ)	.
16.f#\LL	16.ff#\LL	.
32A#X\JJk	32a#X\JJk	.
8A#\L	8a#\L	.
8B\J	8b\J	.
=45	=45	=45
16.c#\LL	16.cc#\LL	.
32d\JJk	32dd\JJk	.
4c#\	4cc#\	.
!!LO:LB:g=original
=46	=46	=46
*^	*	*
!	!	!	!LO:DY:b:rj
4.C#/	8C#\L	16.ccc#|>\LL	p
.	.	32gg#|>\JJk	.
.	.	(<8qddd/	.
.	8B 8G# 8E#X\	8ccc#\L)	.
.	8BJ 8G# 8E#\	8bb'>\J	.
*v	*v	*	*
=47	=47	=47
.	(<8qbb/	.
16.ALL 16.F#\	16.aa\LL)	.
32BJJk 32E#X 32C#\	32gg#\JJk	.
8A 8F#\	8ff#\	.
8r	8cc#\	.
=48	=48	=48
.	(<8qcc#/	.
*^	*	*
4.E/	8E\L	16.ee\LL)	.
.	.	32dd|>\JJk	.
.	8d 8G#\	8b'>\L	.
.	8dJ 8G#\	(>16ff#\L	.
.	.	16ee\JJ)	.
*v	*v	*	*
=49	=49	=49
8AA/	(>16dd#X\LL	.
.	16ee\JJ)	.
8c#L 8A 8E\	8aa'>\L	.
8c#J 8A 8E\	8cc#'>\J	.
!!LO:LB:g=original
=50	=50	=50
*^	*	*
4.E/	8E\L	(>16cc#\LL	.
.	.	16b\JJ)	.
.	8d 8B\	8dd\L	.
.	8dJ 8B\	8g#\J	.
=51	=51	=51	=51
4.AA/	8AA\L	16.a\LL	.
.	.	32cc#\K	.
.	8A 8F# 8BB#X\	16.ff#\	.
.	.	32dd#X\JK	.
.	8AJ 8E 8C#\	8ee\J	.
=52	=52	=52	=52
.	.	(<8qcc#/	.
4.E/	8E\L	16.ee\L)	.
.	.	32dd\J|>	.
.	8d 8G#\	8b'>\L	.
.	8dJ 8G#\	(>16ff#\	.
.	.	16ee\J)	.
*v	*v	*	*
=53	=53	=53
8AA/	(>16dd#X\LL	.
.	16ee\JJ)	.
8c#L 8A 8E\	8aa\L	.
8B#XJ 8A 8F#\	8dd#\J	.
=54	=54	=54
8c#L 8A 8E\	(>16ff#\LL	.
.	16ee\)	.
8c# 8A 8E\	(>16dd#X\	.
.	16ee\)	.
8dJ 8G# 8E\	16ddn'>\	.
.	16b'>\JJ	.
!!LO:LB:g=original
=55	=55	=55
8c# 8A\	8a/	.
!	!LO:TX:b:t=P:problem=napis "V&colon; S&colon;" za podwójną kreską taktową	!
!	!LO:TX:i:b:t=V&colon; S&colon;	!
4A 4AA/	4aa 4cc# 4a\	.
!!LO:PB:g=original
=56!|:	=56!|:	=56!|:
*>D	*>D	*
*k[f#c#g#]	*k[f#c#g#]	*
16BB/	(<16a#X/LL	.
32r	16b/JJ)	.
32BKKL 32A 32F#\	.	.
8B 8A 8F#\	8cc#'>\L	.
8BJ 8A 8F#\	8dd#X'>\J	.
=57	=57	=57
16E 16EE/	16.ee|>\LL	.
32r	.	.
32B 32G# 32E\	32gg#|>\K	.
8BL 8G# 8E\	16.bb|>\	.
.	32ccc#|>\JK	.
8BJ 8G# 8E\	8bb|>\J	.
=58	=58	=58
8BB/	(>16ccc#\LL	.
.	16bb\JJ)	.
8BL 8F# 8D#X\	8fff#\L	.
8BJ 8F# 8D#\	8aa\J	.
=59	=59	=59
8E 8EE/	16.gg#\LL	.
.	32dd#X\K	.
8BL 8G# 8E\	16.ee\	.
.	32ccc#\JK	.
8BJ 8G# 8E\	8bb\J	.
!!LO:LB:g=original
=60	=60	=60
16BB 16BBB/	(>16bb\LL	.
32r	16aa\JJ)	.
32BKKL 32A 32F#\	.	.
8B 8A 8F#\	8cc#|>\L	.
8BJ 8A 8F#\	8dd#X|>\J	.
=61	=61	=61
16E 16EE/	16.ee|>\LL	.
32r	.	.
32BKKL 32G# 32E\	32gg#|>\K	.
8B 8G# 8E\	16.bb|>\	.
.	32ccc#|>\JJk	.
16BJk 16G# 16E\	(>16bb\LL	.
16r	16bb#X\JJ)	.
=62	=62	=62
8AL 8F# 8C# 8AA\	(>16ddd#X\LL	.
.	16ccc#\JJ)	.
8A 8D#X 8BB\	(>16bb\LL	.
.	16aa\JJ)	.
8AJ 8D# 8BB\	(>16gg#\LL	.
.	16ff#\JJ)	.
=63	=63	=63
16G# 16E\	16ee\	.
16r	16r	.
8E 8EE/	8eee 8gg# 8ee\	.
8r	8cc#\	.
!!LO:LB:g=original
=64	=64	=64
.	(<8qcc#/	.
*^	*	*
4.E/	8E\L	16.ee\LL)	.
.	.	32dd|>\JJk	.
.	8d 8G#\	8b'>\L	.
.	8dJ 8G#\	(>16ff#\L	.
.	.	16ee\JJ)	.
*v	*v	*	*
=65	=65	=65
8AA/	(>16dd#X\LL	.
.	16ee\JJ)	.
8c#L 8A 8E\	8aa'>\L	.
8c#J 8A 8E\	8cc#'>\J	.
=66	=66	=66
*^	*	*
4.E/	8E\L	(>16cc#\LL	.
.	.	16b\JJ)	.
.	8d 8B\	8dd'</L	.
.	8dJ 8B\	8g#'</J	.
=67	=67	=67	=67
4.AA/	8AA\L	16.a\LL	.
.	.	32cc#\K	.
.	8A 8F# 8D#X 8BB#X\	16.ff#\	.
.	.	32dd#X\JK	.
.	8AJ 8E 8C#\	8ee\J	.
=68	=68	=68	=68
.	.	(<8qcc#/	.
4.E/	8E\L	16.ee\LL)	.
.	.	32dd|>\JJk	.
.	8d 8G#\	8b|>\L	.
.	8dJ 8G#\	(>16ff#\L	.
.	.	16ee\JJ)	.
*v	*v	*	*
!!LO:LB:g=original
=69	=69	=69
8AA/	(>16dd#X\LL	.
.	16ee\JJ)	.
8c#L 8A 8E\	8aa'>\L	.
8B#XJ 8A 8F#\	8dd#'>^<\J	.
=70	=70	=70
8c#L 8A 8E\	16.ff#\LL	.
.	32ee\K	.
8c# 8A 8E\	16.dd#X\	.
.	32ee\K	.
8dJ 8G# 8E\	16.ddn\	.
.	32b\JJk	.
=71	=71	=71
16c# 16A\	16a/	.
16r	16r	.
!	!LO:TX:a:t=P:problem=znak fermaty nad repetycją	!
4A 4AA/	4aa^< 4cc# 4a\	.
=72:|!	=72:|!	=72:|!
*>E	*>E	*
16Gn 16GGn/	16b-X\	.
16r	16r	.
4G 4GG/	4bb-X^<\ 4dd\ 4b-X\	.
=73	=73	=73
16cn 16Cn\	16ccn\	.
16r	16r	.
4c 4C\	4ee^</ 4cc/ 4b-X/ 4gn/	.
!!LO:LB:g=original
=74	=74	=74
16.cnLL 16.Cn\	4.r	.
32cJJk 32C\	.	.
8cL 8C\	.	.
8cJ 8C\	.	.
=75	=75	=75
*tremolo	*	*
8cnL 8Cn\	4.r	.
8c 8C\	.	.
8cJ 8C\	.	.
*Xtremolo	*	*
*kcancel	*kcancel	*
=76!|:	=76!|:	=76!|:
*>F	*>F	*
*k[b-]	*k[b-]	*
!	!	!LO:DY:b
.	(<16qqcc/LL	f
.	16qqdd/	.
.	16qqee/JJ	.
8cL 8A 8F\	16.ff\LL)	.
!	!	!LO:DY:b
.	32a|>\JJk	p
8c 8A 8F\	8a|>\L	.
8cJ 8A 8F\	8cc|>\J	.
=77	=77	=77
!	!LO:TUP:a:problem=klamra łukowa	!
8cL 8B- 8F\	24ee\LL	.
.	24ff\	.
.	24gg\JJ	.
8c 8A 8F\	8ff'>\L	.
8cJ 8A 8F\	8cc'>\J	.
=78	=78	=78
.	(<16qqcc/LL	.
.	16qqdd/	f
.	16qqee/JJ)	.
8cL 8A 8F\	16.ff\LL	.
.	32a|>\JJk	p
8c 8A 8F\	8a|>\L	.
8cJ 8A 8F\	(>16dd\L	.
.	16cc\JJ)	.
!!LO:LB:g=original
=79	=79	=79
!	!LO:TUP:a:problem=klamra łukowa	!
8e 8c 8B- 8F\	24gg\LL	.
.	24aa\	.
.	24gg\JJ	.
4f 4c 4A 4F\	4ff\	.
=80:|!|:	=80:|!|:	=80:|!|:
*>G	*>G	*
!	!	!LO:DY:b:rj
.	(<16qqbn/LL	f
.	16qqdd/	.
.	16qqff/JJ	.
8G 8GG/	16.aa\LL)	.
.	32gg\K	.
8fL 8d 8G\	16.ff\	.
.	32ee\K	.
8fJ 8d 8G\	16.dd\	.
.	32b\JJk	.
=81	=81	=81
!	!LO:TUP:a:problem=klamra łukowa	!
8C/	24cc\LL	.
.	24dd\	.
.	24ee\JJ	.
8eL 8c 8G\	8g/	.
8eJ 8c 8G\	8gg 8ee 8cc 8g\	.
=82	=82	=82
.	16qqdd/LL	.
.	16qqff/JJ	.
8G 8GG/	16.bbn\LL	.
.	32aa\K	.
8fL 8Bn 8G\	16.gg\	.
.	32ff\K	.
8fJ 8B 8G\	16.ee\	.
.	32dd\JJk	.
!!LO:PB:g=original
=83	=83	=83
!	!LO:TUP:a:problem=klamra łukowa	!
8C/	24cc\LL	.
.	24dd\	.
.	24ee\JJ	.
8eL 8c 8G\	8cc\L	.
8eJ 8c 8G\	8ccc^<J 8ee 8cc\	.
=84	=84	=84
.	(<16qqbn/LL	.
.	16qqdd/	.
.	16qqff/JJ	.
8G 8GG/	16.aa\LL)	.
.	32gg\K	.
8fL 8d 8G\	16.ff\	.
.	32ee\K	.
8fJ 8d 8G\	16.dd\	.
.	32bn\JJk	.
=85	=85	=85
!	!LO:TUP:a:problem=klamra łukowa	!
8C/	24cc\LL	.
.	24dd\	.
.	24ee\JJ	.
8eL 8c 8G\	8g/	.
8eJ 8c 8G\	8gg 8ee 8cc 8g\	.
=86	=86	=86
.	(<16qqdd/LL	.
.	16qqff/JJ)	.
8G 8GG/	16.bbn\LL	.
.	32aa\K	.
8fL 8Bn 8G\	16.gg\	.
.	32ff#X\K	.
8fJ 8B 8G\	16.ffn\	.
.	32dd\JJk	.
!!LO:LB:g=original
=87	=87	=87
8eL 8c\	8cc\L	.
8cJ 8C\	8cccJ 8ee 8cc\	.
8r	8r	.
=88	=88	=88
.	(<16qqcc/LL	.
.	16qqdd/	f
.	16qqee/JJ)	.
8cL 8A 8F\	16.ff\LL	.
!	!	!LO:DY:b:rj
.	32a\JJk	p
8c 8A 8F\	8a\L	.
8cJ 8A 8F\	8cc\J	.
=89	=89	=89
!	!LO:TUP:a:problem=klamra łukowa	!
8cL 8B- 8F\	24ee\LL	.
.	24ff\	.
.	24gg\JJ	.
8c 8A 8F\	8ff\L	.
8cJ 8A 8F\	8cc\J	.
=90	=90	=90
.	(<16qqcc/LL	.
.	16qqdd/	.
.	16qqee/JJ)	f
8cL 8A 8F\	16.ff\LL	.
.	32a\JJk	p
8c 8A 8F\	8a\L	.
8cJ 8A 8F\	16dd\L	.
.	16cc\JJ	.
=91	=91	=91
!	!LO:TUP:a:problem=klamra łukowa	!
8e 8c 8B- 8F\	24gg\LL	.
.	24aa\	.
.	24gg\JJ	.
4f 4c 4A 4F\	4ff\	.
!!LO:LB:g=original
=92	=92	=92
.	(<16qqcc/LL	.
.	16qqdd/	.
.	16qqee/JJ)	f
8cL 8A 8F\	16.ff\LL	.
.	32a\JJk	p
8c 8A 8F\	8a\L	.
8cJ 8A 8F\	8cc\J	.
=93	=93	=93
*	*Xtuplet	*
!	!LO:TUP:a:problem=klamra łukowa	!
8cL 8B- 8F\	24ee\LL	.
.	24ff\	.
.	24gg\JJ	.
8c 8A 8F\	8ff\L	.
8cJ 8A 8F\	8cc\J	.
=94	=94	=94
.	(<16qqcc/LL	.
.	16qqdd/	.
.	16qqee/JJ)	f
8cL 8A 8F\	16.ff\LL	.
.	32a|>\JJk	p
8c 8A 8F\	8a|>\L	.
8cJ 8A 8F\	(>16dd\L	.
.	16cc\JJ)	.
=95	=95	=95
*	*tuplet	*
!	!LO:TUP:a:problem=klamra łukowa	!
8e 8c 8B- 8F\	24gg\LL	.
.	24aa\	.
.	24gg\JJ	.
4f 4c 4A 4F\	4ff\	.
!!LO:LB:g=original
=96:|!	=96:|!	=96:|!
*>H	*>H	*
*^	*	*
4.F/	8F\L	8.dd#X\L	.
.	8d#X 8A\	.	.
.	.	16cc\L	.
.	.	(<8qcc/	.
.	8d#J 8A\	16bn\)	.
.	.	16a\JJ	.
=97	=97	=97	=97
4.E/	8E\L	16.g#X|>\LL	.
.	.	32bn|>\JJk	.
.	.	(<8qgg#X/	.
.	8Bn 8G#X\	8ff^<\L)	.
.	8BJ 8G#\	8ee'>\J	.
=98	=98	=98	=98
4.F/	8F\L	8.dd#X\L	.
.	8d#X 8A\	.	.
.	.	16cc\L	.
.	.	(<8qcc/	.
.	8d#J 8A\	16bn\)	.
.	.	16a\JJ	.
=99	=99	=99	=99
4.E/	8E\L	16.g#X|</LL	.
.	.	32bn|</JJk	.
!	!	!LO:TX:t=P:problem=mixed beam	!
.	8Bn 8G#X\	(>8e/L	.
.	8BJ 8G#\	8ee\J)	.
!!LO:LB:g=original
=100	=100	=100	=100
4.F/	8F\L	8.dd#X\L	.
.	8d#X 8A\	.	.
.	.	16cc\L	.
.	.	(<8qcc/	.
.	8d#J 8A\	16bn\)	.
.	.	16a\JJ	.
=101	=101	=101	=101
4.E/	8E\L	16.g#X|</LL	.
.	.	32bn|</JJk	.
.	.	(<8qgg#X/	.
.	8Bn 8G#X\	8ff\L)	.
.	8BJ 8G#\	8ee'>\J	.
=102	=102	=102	=102
4.F/	8F\L	8.dd#X\L	.
.	8d#X 8A\	.	.
.	.	16cc\L	.
.	.	(<8qcc/	.
.	8d#J 8A\	16bn\)	.
.	.	16a'>\JJ	.
*v	*v	*	*
=103	=103	=103
16e 16Bn 16G#X 16E\	16ee\	.
16r	16ee|> 16e\	.
8r	8ee'<L 8e/	.
8r	[>8ee'<J [<8e/	.
=104	=104	=104
4.d 4.Bn\	16ee]LL 16e/]	.
.	16ee'<J 16e/	.
.	8ee'< 8e/	.
.	[>8eeJ [<8e/	.
!!LO:LB:g=original
=105	=105	=105
4.c#X 4.A\	16ee]LL 16e/]	.
.	16ee'<J 16e/	.
.	8ee'< 8e/	.
.	[>8ee'<J [<8e/	.
=106	=106	=106
4.Bn 4.E\	16ee]LL 16e/]	.
.	16ee'<J 16e/	.
.	8ee'< 8e/	.
.	8ee'<J 8e/	.
=107	=107	=107
8dL 8Bn\	16ee 16e/	.
.	16e'</LL	.
8c#X 8A\	(<16d#X/	.
.	16e/)	.
8BJ 8E\	16f#X'</	.
!	!LO:TX:i:b:t=d'al segno al fine\ne poi la Coda	!
!	!LO:TX:a:t=P:problem=znak segno nad podwójną kreską	!
!	!LO:TX:a:t=[segno]	!
.	16g#X'</JJ	.
!!LO:PB:g=original
=108||	=108||	=108||
*>I	*>I	*
*clefF4	*clefG2	*
*k[f#c#g#]	*k[f#c#g#]	*
*M3/8	*M3/8	*
!	!LO:TX:a:t=P:kolejność:problem= klucze, znaki przykluczowe, metrum	!
!	!LO:TX:a:i:t=Coda	!LO:DY:b:rj
8A 8E 8AA\	16.aLL 16.e 16.c#/	f
.	32cc#JJk 32a 32e/	.
8AL 8E 8AA\	8eeL 8cc# 8a\	.
8AJ 8F# 8AA\	8dd#X^<J 8b#X 8a\	.
=109	=109	=109
.	(<8qff# 8qddn/	.
8A 8AA\	16.eeLL 16.cc#\)	.
.	32dd#X|>JJk 32b#X\	.
8AL 8E 8AA\	8ee|>L 8cc#\	.
8AJ 8F# 8AA\	8dd#|>^<J 8b#\	.
=110	=110	=110
*tremolo	*	*
.	(<8qff# 8qddn/	.
8AL 8E 8AA\	16.eeLL 16.cc#\)	.
.	32dd#X|>JJk 32b#X\	.
8A 8E 8AA\	16ee|>LL 16cc#\	.
.	16cc#|>\	.
8AJ 8E 8AA\	16a|>\	.
.	16cc#|>\JJ	.
!!LO:LB:g=original
=111	=111	=111
8BL 8G# 8E\	16.b|</LL	.
.	32g#|</JJk	.
8B 8G# 8E\	(<8.e/L	.
8BJ 8G# 8E\	.	.
.	32f#/LL	.
.	32g#/JJJ)	.
*Xtremolo	*	*
=112	=112	=112
8A 8E 8AA\	16.aLL 16.e 16.c#/	.
.	32cc#JJk 32a 32e/	.
8AL 8E 8AA\	8eeL 8cc# 8a\	.
8AJ 8F# 8AA\	8dd#X^<J 8b#X 8a\	.
=113	=113	=113
.	(<8qff# 8qddn/	.
8A 8E 8AA\	16.eeLL 16.cc#\)	.
.	32dd#X|>JJk 32b#X\	.
8AL 8E 8AA\	8ee'>L 8cc#\	.
8AJ 8F# 8D#X 8AA\	8aa'>^<J 8b# 8a\	.
=114	=114	=114
8A 8E 8AA\	16.aa|>LL 16.cc# 16.a\	.
.	32cc#|>\JJk	.
8c#L 8A\	(>16ff#\LL	.
.	16ee\)	.
8dJ 8G# 8E\	16dd'>\	.
.	16b'>\JJ	.
!!LO:LB:g=original
=115	=115	=115
8c# 8A\	8a/	.
4A 4AA\	4aa^< 4cc# 4a\	.
=116	=116	=116
8F# 8FF#/	8a/	.
4F# 4FF#/	4aa^< 4cc# 4a\	.
=117	=117	=117
!	!	!LO:DY:b:rj
16.BBLL 16.BBB/	16.bbL 16.ff# 16.dd#X 16.b\	ff
32BBJJk 32BBB/	32bbJ 32ff# 32dd# 32b\	.
8BBL 8BBB/	8bbL 8ff# 8dd# 8b\	.
8D#XJ 8DD#X/	8aaJ 8ff# 8b\	.
=118	=118	=118
16E 16EE/	16.gg#LL 16.ee 16.b\	.
16r	.	.
.	32ff#\JJk	.
4B 4G# 4E\	4ee\	.
=119	=119	=119
.	(<8qee/	.
*^	*	*
4.D/	8D\L	8e/L)	.
.	8B 8G# 8E\	16f#'</L	.
.	.	16g#'</	.
.	8BJ 8G# 8E\	16a'</	.
.	.	16b'</JJ	.
!!LO:LB:g=original
=120	=120	=120	=120
4C#/	8C#\L	16.cc#\LL	.
.	.	32dd\JJk	.
.	8A 8E\	8ee\L	.
8ryy	8AJ 8F# 8D#X\	8aaJ 8b#X 8a\	.
=121	=121	=121	=121
4E/	8E\L	16.aaLL 16.cc# 16.a\	.
.	.	32cc#\JJk	.
.	8c# 8A\	16ff#\LL	.
.	.	16ee\	.
8ryy	8dJ 8B 8E\	16ff#\	.
.	.	16gg#\JJ	.
*v	*v	*	*
=122	=122	=122
4.r;>	4.r;>	.
=123	=123	=123
!	!LO:TX:a:i:t=piu All.o.	!LO:DY:b:t=for
8A 8E 8AA\	16.aLL 16.e 16.c#/	f
.	32cc#JJk 32a 32e/	.
8AL 8E 8AA\	8eeL 8cc# 8a\	.
8AJ 8F# 8AA\	8dd#X^<J 8b#X 8a\	.
=124	=124	=124
*rep	*	*
.	(<8qff# 8qddn/	.
8A 8E 8AA\	16.eeLL 16.cc#\)	.
.	32dd#XJJk 32b#X\	.
8AL 8E 8AA\	8eeL 8cc#\	.
8AJ 8F# 8AA\	8dd#^<J 8b#\	.
*Xrep	*	*
!!LO:LB:g=original
=125	=125	=125
*tremolo	*	*
.	8qff# 8qddn/	.
8AL 8E 8AA/	16.eeLL 16.cc#\	.
.	32dd#XJJk 32b#X\	.
8A 8E 8AA/	16eeLL 16cc#\	.
.	16cc#\	.
8AJ 8E 8AA/	16a\	.
.	16cc#\JJ	.
*Xtremolo	*	*
=126	=126	=126
.	(<8qcc#/	.
8B 8G# 8E\	16.b/LL)	.
.	32g#|</JJk	.
4B 4G# 4E\	(<8.e/L	.
.	32f#/LL	.
.	32g#/JJJ)	.
=127	=127	=127
8A 8E 8AA\	16.aLL 16.e 16.c#/	.
.	32cc#JJk 32a 32e/	.
8AL 8E 8AA\	8eeL 8cc# 8a\	.
8AJ 8F# 8AA\	8dd#X^<J 8b#X 8a\	.
!!LO:LB:g=original
=128	=128	=128
.	(<8qff# 8qddn/	.
8A 8E 8AA\	16.eeLL 16.cc#\)	.
.	32dd#XJJk 32b#X\	.
8AL 8E 8AA\	8eeL 8cc#\	.
8AJ 8F# 8D#X 8AA\	8aaJ 8b# 8a\	.
=129	=129	=129
8A 8E 8AA\	16.aaLL 16.cc# 16.a\	.
.	32cc#\JJk	.
8c#L 8A\	(>16ff#\LL	.
.	16ee\)	.
8dJ 8G# 8E\	16ddn'>\	.
.	16b'>\JJ	.
=130	=130	=130
16.c#LL 16.A\	8a/	.
32C#\JJk	.	.
(>16F#\LL	8r	.
16E\)	.	.
16D'>\	8r	.
16BB'>\JJ	.	.
=131	=131	=131
8AA/	16.a|>\LL	.
.	32cc#|>\JJk	.
8c#L 8A\	(>16ff#\LL	.
.	16ee\)	.
8dJ 8G# 8E\	16dd'>\	.
.	16b'>\JJ	.
!!LO:PB:g=original
=132	=132	=132
16.c#|>LL 16.A\	8a/	.
32C#|>\JJk	.	.
(>16F#\LL	8r	.
16E\)	.	.
16D'>\	8r	.
16BB'>\JJ	.	.
=133	=133	=133
8AA/	4.r	.
8r	.	.
8r	.	.
=134	=134	=134
4A 4E 4AA\	4aa 4cc# 4a\	.
8r	8r	.
==	==	==
*-	*-	*-
!!!system-decoration: {(s1,s2)}
!!!RDF**kern: | = vertical stroke
!!!RDF**kern: > = above
!!!RDF**kern: < = below
!!!EED: Antoni Szymański
!!!EST: 2021-05-05
!!!ENC: Marcin Jachim
!!!END: 2021-04-10
